Adwaita++-Light/panel/24/qtox-busy.svg

<svg height="24" width="24" xmlns="http://www.w3.org/2000/svg">
  <path d="m12 11c2.209116.000055 3.999945 1.790884 4 4-.000055 2.209116-1.790884 3.999945-4 4-2.2091161-.000055-3.9999448-1.790884-4-4 .0000552-2.209116 1.7908839-3.999945 4-4zm0-5c1.1052 0 2 .8955 2 2 0 .4715-.102.8423-.236 1.1074-.133.2651-.426.6197-.764.8926-.33.2671-1 .6-1 .6s.303-.3643.428-.65c-.141.0313-.283.05-.428.05-1.1044.001-2-.8955-2-2s.8948-2 2-2zm0-2c-2.2089 0-4 1.7911-4 4v2h-2c-.5523351-.0001216-1.0001216.447665-1 1v8c-.0001216.552335.4476649 1.000122 1 1h12c.552335.000122 1.000122-.447665 1-1v-8c.000122-.552335-.447665-1.0001216-1-1h-2v-2c0-2.2089-1.791-4-4-4zm-3 10.000326v1.999674h6v-1.999674z" fill="#444"/>
</svg>

<svg xmlns="http://www.w3.org/2000/svg" width="24" height="24" version="1.1">
 <defs>
  <style id="current-color-scheme" type="text/css">
   .ColorScheme-Text { color:#444444; } .ColorScheme-Highlight { color:#4285f4; }
  </style>
 </defs>
 <g>
  <path style="fill:currentColor" class="ColorScheme-Text" d="m 12,11 c 2.209116,5.5e-5 3.999945,1.790884 4,4 -5.5e-5,2.209116 -1.790884,3.999945 -4,4 -2.2091161,-5.5e-5 -3.9999448,-1.790884 -4,-4 5.52e-5,-2.209116 1.7908839,-3.999945 4,-4 z m 0,-5 c 1.1052,0 2,0.8955 2,2 0,0.4715 -0.102,0.8423 -0.236,1.1074 C 13.631,9.3725 13.338,9.7271 13,10 c -0.33,0.2671 -1,0.6 -1,0.6 0,0 0.303,-0.3643 0.428,-0.65 C 12.287,9.9813 12.145,10 12,10 10.8956,10.001 10,9.1045 10,8 10,6.8955 10.8948,6 12,6 Z M 12,4 C 9.7911,4 8,5.7911 8,8 l 0,2 -2,0 C 5.4476649,9.9998784 4.9998784,10.447665 5,11 l 0,8 c -1.216e-4,0.552335 0.4476649,1.000122 1,1 l 12,0 c 0.552335,1.22e-4 1.000122,-0.447665 1,-1 l 0,-8 c 1.22e-4,-0.552335 -0.447665,-1.0001216 -1,-1 l -2,0 0,-2 C 16,5.7911 14.209,4 12,4 Z M 9,14.000326 9,16 l 6,0 0,-1.999674 -6,0 z"/>
 </g>
</svg>
